app/dist/common/images/conifer-holding-inc.svg

<svg fill="none" height="18" viewBox="0 0 18 18" width="18" xmlns="http://www.w3.org/2000/svg"><path d="m0 0h18v18h-18z" fill="#f0f3fa"/><path clip-rule="evenodd" d="m8.23504 4.05309c-1.96957.29258-3.62136 1.79626-4.08869 3.72207-.15393.63431-.18925 1.3949-.09255 1.99281.25963 1.60533 1.22675 2.94673 2.65281 3.67943.71914.3694 1.47952.553 2.28955.5526.8422-.0004 1.55234-.1715 2.29574-.5531 1.1884-.6101 2.065-1.638 2.4794-2.9074.2656-.81336.3024-1.84247.0972-2.71707-.3607-1.53781-1.4725-2.83477-2.9578-3.45025-.8062-.3341-1.7871-.45108-2.67566-.31909zm.74529.89648c.06644.04047.12082.08743.12082.1043 0 .0169-.04969.05733-.11039.08988-.13019.06975-.06878.10994.07445.04867.0752-.03216.11154-.03156.16477.00277.05655.03647.08324.03391.15535-.01487.1236-.0836.15736-.07368.15736.04633 0 .08293.01485.1052.07017.1052.03859 0 .09881-.01581.13379-.03517.08675-.0479.12211.01799.06685.1246-.05968.11513-.23025.18986-.49077.21496-.32181.03104-.28303.11643.05292.11643.17081 0 .21262.04412.12628.13326-.05797.05986.02935.05551.21059-.01052.21506-.07834.24805-.0708.23052.0526-.01202.08459-.00265.10521.04792.10521.03724 0 .07724.03899.09804.09538.0478.12996-.0303.18516-.26209.18516-.09809 0-.18847.01697-.2009.0377-.01498.02507-.10686.02956-.27373.01343-.1634-.01582-.25113-.01182-.25113.01147 0 .04808.18728.11274.32654.11274.07784 0 .12383.02164.14897.07014.02.03857.05978.07013.08841.07013.0378 0 .04568.02062.0288.07558-.02255.07332-.01705.07487.18661.05291.20332-.02195.20952-.0202.19922.05594-.0096.07171.005.0795.1678.08918.1472.00876.1783.02191.1783.07557 0 .0552.0198.06224.1314.04678.075-.01042.141-.00235.1536.01876.0309.05159-.1616.26894-.2848.32165-.1217.052-.1296.0891-.0257.11926.0723.02101.073.0243.0133.0606-.0348.02115-.18.05807-.3227.08213-.24402.04106-.2538.04608-.16389.08374.05258.02206.14049.04008.19529.04008s.0997.01547.0997.03441c0 .05709-.164.08146-.40687.06045-.13118-.01136-.24374-.00526-.26259.01421-.02102.0217-.08427.0222-.17427.00129-.12143-.02815-.14113-.02468-.14018.02487.00272.14451.16575.25052.38527.25052.0842 0 .16368.01771.17662.03935.03165.05285.33842.0142.58652-.07385.1871-.06639.1933-.06649.2364-.00288.0356.05239.0724.06137.1868.04556l.1424-.01975-.1092.12849c-.0601.0707-.1012.1503-.0913.17692.0232.0626.3053.10093.5233.07108.2418-.03314.2163.0283-.0679.16356-.1308.06221-.2378.12621-.2378.1422 0 .05411.1665.1421.3052.16132.1579.02184.1948.05975.133.13659-.035.04359-.0348.05912.0014.0822.0246.01567.035.04467.0231.06449-.0119.01978-.0023.04422.0211.05432.0305.01304.0238.03405-.0232.07311-.1163.09662-.6916.07316-1.2854-.05246-.27897-.05898-.51465-.09948-.52386-.09002-.05947.06144.71326.33568.94956.33704.1285.00074.1174.04401-.0485.19067l-.142.12547.1165-.00084c.0641-.00046.1776-.01574.2524-.03398.1074-.02623.1437-.02237.1735.01838.0208.02833.0704.05151.1104.05151.1169 0 .085.04857-.1056.16062-.15.0882-.18.1228-.189.2176-.0092.0976-.0234.1127-.1061.1127-.0525 0-.1605-.0236-.2399-.0526-.1928-.0702-.2374-.0646-.1416.0178.1168.1006.2923.1396.6281.1398l.2996.0002-.0109.0965c-.0103.0908-.0041.0957.1079.0842.0654-.0066.1764-.0325.2466-.0573.1342-.0476.1957-.0159.1294.0666-.0206.0256-.0284.0712-.0172.1013.0138.0372-.0129.0724-.0833.11-.1206.0644-.1771.1571-.1651.271.0076.0721-.0126.0851-.1868.1211-.2109.0434-.3651.128-.3651.2002 0 .0967.088.1606.2351.1708.0826.0057.1555.0271.162.0475.0181.0571-.204.1512-.4606.1949-.1929.0329-.2793.0296-.514-.0195-.2261-.0473-.28735-.0501-.30882-.0143-.04066.0679-.21918-.0331-.50105-.2836-.13162-.117-.24394-.2127-.24965-.2127-.00567 0-.00506.4172.0014.9271l.01175.9271-.14096.0391c-.14177.0395-.39043.0205-.47979-.0365-.03865-.0247-.04806-.158-.04806-.6807 0-.3575-.00516-.65-.01144-.65-.00629 0-.10564.0951-.22078.2113-.42643.4306-.67662.5294-.30826.1218.12203-.135.23799-.2754.25772-.3121.03444-.064.032-.0639-.06144.0025-.21035.1495-.74761.3256-.83106.2723-.02479-.0158.06766-.0781.23653-.1595.29886-.1439.5821-.3302.5821-.3826 0-.0199-.03183-.02-.08176-.0004-.04493.0176-.17104.0413-.28021.0526-.53736.0555-.55757.0537-.53152-.0492.01254-.0496-.00981-.0685-.10223-.0863-.1578-.0306-.29839-.1058-.39366-.2105-.09704-.1066-.06867-.1613.08373-.1613.14758 0 .14696-.0319-.00241-.1318-.19303-.1291-.15315-.1555.1957-.1297.52959.0392 1.03186-.0712 1.23932-.2723.11541-.112.09262-.1422-.05054-.0669-.22852.1201-.48747.18-.7704.1779-.34729-.0025-.51491-.0576-.50373-.1654.00445-.0428-.0032-.0746-.01699-.0707-.01375.0039-.09112-.0044-.17193-.0185-.18154-.0317-.17383-.1043.01369-.1295l.13321-.0178-.18681-.0922c-.22022-.1086-.33116-.1907-.30052-.2223.01216-.0125.10383-.0294.20376-.0375.42667-.0346.6363-.06064.844-.10483.5577-.11867.6668-.17958.29091-.1624-.26306.01203-.61654-.0722-.87681-.20893-.20366-.107-.15223-.17044.13864-.171.38055-.00073.68267-.08335.40742-.11144-.16552-.01687-.15057-.08371.03009-.1347.18552-.05239.50655-.21963.4554-.23724-.01871-.00645-.09225.00498-.1634.02539-.1806.05176-.46713.04657-.6003-.01087-.12027-.05186-.26897-.21998-.24907-.2816.00666-.02062.06705-.03264.13423-.02665.10893.00968.1201.00302.1037-.06175-.01699-.06705-.00381-.07259.17237-.07259.1953 0 .23076-.02729.13841-.10644-.09687-.083.0035-.11232.12424-.03629.15634.0984.38517.09577.5395-.00621l.11888-.07852-.11772-.01181c-.06715-.00674-.15281-.04801-.19941-.09613-.07652-.079-.07768-.0857-.01814-.10562.20688-.06912.38622-.20101.38622-.28398 0-.06358-.07085-.05839-.27026.01985-.14561.05712-.17468.05937-.20936.0162-.02656-.03304-.07839-.04384-.15223-.03174-.06155.0101-.12116.00302-.1324-.01578-.02157-.03609.11321-.10612.5179-.26908.26309-.10594.41268-.20206.37501-.24095-.01274-.01315-.1577.00158-.32216.03272-.35212.06673-.68049.07266-.86492.0156-.17017-.05263-.15084-.10478.05577-.15058.14591-.03233.15804-.04184.10801-.08455-.03101-.02648-.05638-.05972-.05638-.07389 0-.01413.15668-.03503.34814-.04639.34352-.02038.60288-.0787.60288-.13558 0-.01606-.06318-.02917-.14041-.02917-.22115 0-.50493-.09812-.50493-.17457 0-.01413.09602-.03497.21341-.04626.11734-.01132.25871-.04106.31417-.06607.09731-.04387.0932-.04579-.12-.05544-.29814-.01353-.33034-.02728-.25779-.11008.05458-.06224.05135-.06631-.0718-.09016-.18834-.03643-.35783-.11684-.33317-.15805.01179-.01971.1018-.0358.19999-.0358.17777 0 .55394-.05923.61225-.09641.01685-.01073.00364-.0399-.02938-.0648-.05533-.0418-.05159-.05061.04823-.11327.05955-.03739.10771-.07884.10703-.09213s-.08135-.06642-.17927-.11807c-.09789-.05169-.18253-.10973-.18806-.12902-.00605-.02107.08698-.03507.2333-.03507.28609 0 .33955-.0566.1236-.1309-.19798-.06814-.18997-.14228.01872-.1731.09061-.0134.22053-.06393.2887-.11229.15332-.10885.17556-.11011.32579-.01859zm-.5879 1.15701c-.07469.06245-.0755.06691-.01246.06691.07336 0 .16408-.08813.11979-.11639-.01501-.00958-.06331.01269-.10733.04948zm.81061 1.00831c0 .10931.12543.22696.21541.20203.04031-.01115.10386-.02058.14122-.02094.05887-.00056.05445-.01178-.03301-.08405-.05553-.04587-.12108-.07544-.14564-.06572-.02456.00975-.07466-.01035-.11131-.04461-.06429-.06007-.06667-.05958-.06667.01329zm.48248 1.5369c.22012.12768.81428.24709.75748.15223-.0114-.01908-.089-.07596-.1725-.12649-.1207-.07305-.1617-.08325-.2005-.04997-.0269.023-.0683.02939-.09201.01424-.02378-.01515-.11684-.02929-.20681-.03139-.15044-.00354-.15733-.00021-.08566.04138zm-1.27217.41735c-.09972.05586-.10855.0763-.06416.14862.02748.04471.05027.021.15353-.15992.0309-.05414.02642-.05358-.08937.0113zm-.11038 1.03136c-.05605.0154-.23514.0558-.39797.0897s-.28762.0758-.27729.093c.01032.0173.00146.0529-.01967.0792-.05628.07.70817-.1863.79512-.2665.03635-.0336.03866-.0337-.10019.0046zm1.10274.5428c.07659.0953.52072.379.80739.5157.3093.1475.369.1642.2592.0723-.0398-.0334-.143-.144-.2293-.2459s-.1569-.1611-.1569-.1315c0 .0767-.0325.0693-.32926-.0757-.40568-.1982-.40031-.1961-.35113-.1349zm-1.03481.46c-.15403.1349-.20288.1463-.25134.0586-.03071-.0554-.0447-.0504-.14605.0534l-.11209.1148.11032-.0227c.07027-.0145.12958-.0062.16347.0229.04552.039.07833.0196.22774-.1347.20206-.2086.20705-.2666.00795-.0923zm1.17179.0809c0 .0573.27128.2846.33976.2846.12155 0 .07998-.0536-.17774-.2293-.13804-.094-.16202-.1023-.16202-.0553z" fill="#37615d" fill-rule="evenodd"/></svg>

<!-- by TradingView --><svg width="18" height="18" viewBox="0 0 18 18" fill="none" xmlns="http://www.w3.org/2000/svg">
<rect width="18" height="18" fill="#F0F3FA"/>
<path fill-rule="evenodd" clip-rule="evenodd" d="M8.23504 4.05309C6.26547 4.34567 4.61368 5.84935 4.14635 7.77516C3.99242 8.40947 3.9571 9.17006 4.0538 9.76797C4.31343 11.3733 5.28055 12.7147 6.70661 13.4474C7.42575 13.8168 8.18613 14.0004 8.99616 14C9.83836 13.9996 10.5485 13.8285 11.2919 13.4469C12.4803 12.8368 13.3569 11.8089 13.7713 10.5395C14.0369 9.72614 14.0737 8.69703 13.8685 7.82243C13.5078 6.28462 12.396 4.98766 10.9107 4.37218C10.1045 4.03808 9.1236 3.9211 8.23504 4.05309ZM8.98033 4.94957C9.04677 4.99004 9.10115 5.037 9.10115 5.05387C9.10115 5.07077 9.05146 5.1112 8.99076 5.14375C8.86057 5.2135 8.92198 5.25369 9.06521 5.19242C9.14041 5.16026 9.17675 5.16086 9.22998 5.19519C9.28653 5.23166 9.31322 5.2291 9.38533 5.18032C9.50893 5.09672 9.54269 5.10664 9.54269 5.22665C9.54269 5.30958 9.55754 5.33185 9.61286 5.33185C9.65145 5.33185 9.71167 5.31604 9.74665 5.29668C9.8334 5.24878 9.86876 5.31467 9.8135 5.42128C9.75382 5.53641 9.58325 5.61114 9.32273 5.63624C9.00092 5.66728 9.0397 5.75267 9.37565 5.75267C9.54646 5.75267 9.58827 5.79679 9.50193 5.88593C9.44396 5.94579 9.53128 5.94144 9.71252 5.87541C9.92758 5.79707 9.96057 5.80461 9.94304 5.92801C9.93102 6.0126 9.94039 6.03322 9.99096 6.03322C10.0282 6.03322 10.0682 6.07221 10.089 6.1286C10.1368 6.25856 10.0587 6.31376 9.82691 6.31376C9.72882 6.31376 9.63844 6.33073 9.62601 6.35146C9.61103 6.37653 9.51915 6.38102 9.35228 6.36489C9.18888 6.34907 9.10115 6.35307 9.10115 6.37636C9.10115 6.42444 9.28843 6.4891 9.42769 6.4891C9.50553 6.4891 9.55152 6.51074 9.57666 6.55924C9.59666 6.59781 9.63644 6.62937 9.66507 6.62937C9.70287 6.62937 9.71075 6.64999 9.69387 6.70495C9.67132 6.77827 9.67682 6.77982 9.88048 6.75786C10.0838 6.73591 10.09 6.73766 10.0797 6.8138C10.0701 6.88551 10.0847 6.8933 10.2475 6.90298C10.3947 6.91174 10.4258 6.92489 10.4258 6.97855C10.4258 7.03375 10.4456 7.04079 10.5572 7.02533C10.6322 7.01491 10.6982 7.02298 10.7108 7.04409C10.7417 7.09568 10.5492 7.31303 10.426 7.36574C10.3043 7.41774 10.2964 7.45484 10.4003 7.485C10.4726 7.50601 10.4733 7.5093 10.4136 7.5456C10.3788 7.56675 10.2336 7.60367 10.0909 7.62773C9.84688 7.66879 9.8371 7.67381 9.92701 7.71147C9.97959 7.73353 10.0675 7.75155 10.1223 7.75155C10.1771 7.75155 10.222 7.76702 10.222 7.78596C10.222 7.84305 10.058 7.86742 9.81513 7.84641C9.68395 7.83505 9.57139 7.84115 9.55254 7.86062C9.53152 7.88232 9.46827 7.88282 9.37827 7.86191C9.25684 7.83376 9.23714 7.83723 9.23809 7.88678C9.24081 8.03129 9.40384 8.1373 9.62336 8.1373C9.70756 8.1373 9.78704 8.15501 9.79998 8.17665C9.83163 8.2295 10.1384 8.19085 10.3865 8.1028C10.5736 8.03641 10.5798 8.03631 10.6229 8.09992C10.6585 8.15231 10.6953 8.16129 10.8097 8.14548L10.9521 8.12573L10.8429 8.25422C10.7828 8.32492 10.7417 8.40452 10.7516 8.43114C10.7748 8.49374 11.0569 8.53207 11.2749 8.50222C11.5167 8.46908 11.4912 8.53052 11.207 8.66578C11.0762 8.72799 10.9692 8.79199 10.9692 8.80798C10.9692 8.86209 11.1357 8.95008 11.2744 8.9693C11.4323 8.99114 11.4692 9.02905 11.4074 9.10589C11.3724 9.14948 11.3726 9.16501 11.4088 9.18809C11.4334 9.20376 11.4438 9.23276 11.4319 9.25258C11.42 9.27236 11.4296 9.2968 11.453 9.3069C11.4835 9.31994 11.4768 9.34095 11.4298 9.38001C11.3135 9.47663 10.7382 9.45317 10.1444 9.32755C9.86543 9.26857 9.62975 9.22807 9.62054 9.23753C9.56107 9.29897 10.3338 9.57321 10.5701 9.57457C10.6986 9.57531 10.6875 9.61858 10.5216 9.76524L10.3796 9.89071L10.4961 9.88987C10.5602 9.88941 10.6737 9.87413 10.7485 9.85589C10.8559 9.82966 10.8922 9.83352 10.922 9.87427C10.9428 9.9026 10.9924 9.92578 11.0324 9.92578C11.1493 9.92578 11.1174 9.97435 10.9268 10.0864C10.7768 10.1746 10.7468 10.2092 10.7378 10.304C10.7286 10.4016 10.7144 10.4167 10.6317 10.4167C10.5792 10.4167 10.4712 10.3931 10.3918 10.3641C10.199 10.2939 10.1544 10.2995 10.2502 10.3819C10.367 10.4825 10.5425 10.5215 10.8783 10.5217L11.1779 10.5219L11.167 10.6184C11.1567 10.7092 11.1629 10.7141 11.2749 10.7026C11.3403 10.696 11.4513 10.6701 11.5215 10.6453C11.6557 10.5977 11.7172 10.6294 11.6509 10.7119C11.6303 10.7375 11.6225 10.7831 11.6337 10.8132C11.6475 10.8504 11.6208 10.8856 11.5504 10.9232C11.4298 10.9876 11.3733 11.0803 11.3853 11.1942C11.3929 11.2663 11.3727 11.2793 11.1985 11.3153C10.9876 11.3587 10.8334 11.4433 10.8334 11.5155C10.8334 11.6122 10.9214 11.6761 11.0685 11.6863C11.1511 11.692 11.224 11.7134 11.2305 11.7338C11.2486 11.7909 11.0265 11.885 10.7699 11.9287C10.577 11.9616 10.4906 11.9583 10.2559 11.9092C10.0298 11.8619 9.96855 11.8591 9.94708 11.8949C9.90642 11.9628 9.7279 11.8618 9.44603 11.6113C9.31441 11.4943 9.20209 11.3986 9.19638 11.3986C9.19071 11.3986 9.19132 11.8158 9.19778 12.3257L9.20953 13.2528L9.06857 13.2919C8.9268 13.3314 8.67814 13.3124 8.58878 13.2554C8.55013 13.2307 8.54072 13.0974 8.54072 12.5747C8.54072 12.2172 8.53556 11.9247 8.52928 11.9247C8.52299 11.9247 8.42364 12.0198 8.3085 12.136C7.88207 12.5666 7.63188 12.6654 8.00024 12.2578C8.12227 12.1228 8.23823 11.9824 8.25796 11.9457C8.2924 11.8817 8.28996 11.8818 8.19652 11.9482C7.98617 12.0977 7.44891 12.2738 7.36546 12.2205C7.34067 12.2047 7.43312 12.1424 7.60199 12.061C7.90085 11.9171 8.18409 11.7308 8.18409 11.6784C8.18409 11.6585 8.15226 11.6584 8.10233 11.678C8.0574 11.6956 7.93129 11.7193 7.82212 11.7306C7.28476 11.7861 7.26455 11.7843 7.2906 11.6814C7.30314 11.6318 7.28079 11.6129 7.18837 11.5951C7.03057 11.5645 6.88998 11.4893 6.79471 11.3846C6.69767 11.278 6.72604 11.2233 6.87844 11.2233C7.02602 11.2233 7.0254 11.1914 6.87603 11.0915C6.683 10.9624 6.72288 10.936 7.07173 10.9618C7.60132 11.001 8.10359 10.8906 8.31105 10.6895C8.42646 10.5775 8.40367 10.5473 8.26051 10.6226C8.03199 10.7427 7.77304 10.8026 7.49011 10.8005C7.14282 10.798 6.9752 10.7429 6.98638 10.6351C6.99083 10.5923 6.98318 10.5605 6.96939 10.5644C6.95564 10.5683 6.87827 10.56 6.79746 10.5459C6.61592 10.5142 6.62363 10.4416 6.81115 10.4164L6.94436 10.3986L6.75755 10.3064C6.53733 10.1978 6.42639 10.1157 6.45703 10.0841C6.46919 10.0716 6.56086 10.0547 6.66079 10.0466C7.08746 10.012 7.29709 9.98596 7.50479 9.94177C8.06249 9.8231 8.17159 9.76219 7.7957 9.77937C7.53264 9.7914 7.17916 9.70717 6.91889 9.57044C6.71523 9.46344 6.76666 9.4 7.05753 9.39944C7.43808 9.39871 7.7402 9.31609 7.46495 9.288C7.29943 9.27113 7.31438 9.20429 7.49504 9.1533C7.68056 9.10091 8.00159 8.93367 7.95044 8.91606C7.93173 8.90961 7.85819 8.92104 7.78704 8.94145C7.60644 8.99321 7.31991 8.98802 7.18674 8.93058C7.06647 8.87872 6.91777 8.7106 6.93767 8.64898C6.94433 8.62836 7.00472 8.61634 7.0719 8.62233C7.18083 8.63201 7.192 8.62535 7.1756 8.56058C7.15861 8.49353 7.17179 8.48799 7.34797 8.48799C7.54327 8.48799 7.57873 8.4607 7.48638 8.38155C7.38951 8.29855 7.48988 8.26923 7.61062 8.34526C7.76696 8.44366 7.99579 8.44103 8.15012 8.33905L8.269 8.26053L8.15128 8.24872C8.08413 8.24198 7.99847 8.20071 7.95187 8.15259C7.87535 8.07359 7.87419 8.06689 7.93373 8.04697C8.14061 7.97785 8.31995 7.84596 8.31995 7.76299C8.31995 7.69941 8.2491 7.7046 8.04969 7.78284C7.90408 7.83996 7.87501 7.84221 7.84033 7.79904C7.81377 7.766 7.76194 7.7552 7.6881 7.7673C7.62655 7.7774 7.56694 7.77032 7.5557 7.75152C7.53413 7.71543 7.66891 7.6454 8.0736 7.48244C8.33669 7.3765 8.48628 7.28038 8.44861 7.24149C8.43587 7.22834 8.29091 7.24307 8.12645 7.27421C7.77433 7.34094 7.44596 7.34687 7.26153 7.28981C7.09136 7.23718 7.11069 7.18503 7.3173 7.13923C7.46321 7.1069 7.47534 7.09739 7.42531 7.05468C7.3943 7.0282 7.36893 6.99496 7.36893 6.98079C7.36893 6.96666 7.52561 6.94576 7.71707 6.9344C8.06059 6.91402 8.31995 6.8557 8.31995 6.79882C8.31995 6.78276 8.25677 6.76965 8.17954 6.76965C7.95839 6.76965 7.67461 6.67153 7.67461 6.59508C7.67461 6.58095 7.77063 6.56011 7.88802 6.54882C8.00536 6.5375 8.14673 6.50776 8.20219 6.48275C8.2995 6.43888 8.29539 6.43696 8.08219 6.42731C7.78405 6.41378 7.75185 6.40003 7.8244 6.31723C7.87898 6.25499 7.87575 6.25092 7.7526 6.22707C7.56426 6.19064 7.39477 6.11023 7.41943 6.06902C7.43122 6.04931 7.52123 6.03322 7.61942 6.03322C7.79719 6.03322 8.17336 5.97399 8.23167 5.93681C8.24852 5.92608 8.23531 5.89691 8.20229 5.87201C8.14696 5.83021 8.1507 5.8214 8.25052 5.75874C8.31007 5.72135 8.35823 5.6799 8.35755 5.66661C8.35687 5.65332 8.2762 5.60019 8.17828 5.54854C8.08039 5.49685 7.99575 5.43881 7.99022 5.41952C7.98417 5.39845 8.0772 5.38445 8.22352 5.38445C8.50961 5.38445 8.56307 5.32785 8.34712 5.25355C8.14914 5.18541 8.15715 5.11127 8.36584 5.08045C8.45645 5.06705 8.58637 5.01652 8.65454 4.96816C8.80786 4.85931 8.8301 4.85805 8.98033 4.94957ZM8.39243 6.10658C8.31774 6.16903 8.31693 6.17349 8.37997 6.17349C8.45333 6.17349 8.54405 6.08536 8.49976 6.0571C8.48475 6.04752 8.43645 6.06979 8.39243 6.10658ZM9.20304 7.11489C9.20304 7.2242 9.32847 7.34185 9.41845 7.31692C9.45876 7.30577 9.52231 7.29634 9.55967 7.29598C9.61854 7.29542 9.61412 7.2842 9.52666 7.21193C9.47113 7.16606 9.40558 7.13649 9.38102 7.14621C9.35646 7.15596 9.30636 7.13586 9.26971 7.1016C9.20542 7.04153 9.20304 7.04202 9.20304 7.11489ZM9.68552 8.65179C9.90564 8.77947 10.4998 8.89888 10.443 8.80402C10.4316 8.78494 10.354 8.72806 10.2705 8.67753C10.1498 8.60448 10.1088 8.59428 10.07 8.62756C10.0431 8.65056 10.0017 8.65695 9.97799 8.6418C9.95421 8.62665 9.86115 8.61251 9.77118 8.61041C9.62074 8.60687 9.61385 8.6102 9.68552 8.65179ZM8.41335 9.06914C8.31363 9.125 8.3048 9.14544 8.34919 9.21776C8.37667 9.26247 8.39946 9.23876 8.50272 9.05784C8.53362 9.0037 8.52914 9.00426 8.41335 9.06914ZM8.30297 10.1005C8.24692 10.1159 8.06783 10.1563 7.905 10.1902C7.74217 10.2241 7.61738 10.266 7.62771 10.2832C7.63803 10.3005 7.62917 10.3361 7.60804 10.3624C7.55176 10.4324 8.31621 10.1761 8.40316 10.0959C8.43951 10.0623 8.44182 10.0622 8.30297 10.1005ZM9.40571 10.6433C9.4823 10.7386 9.92643 11.0223 10.2131 11.159C10.5224 11.3065 10.5821 11.3232 10.4723 11.2313C10.4325 11.1979 10.3293 11.0873 10.243 10.9854C10.1567 10.8835 10.0861 10.8243 10.0861 10.8539C10.0861 10.9306 10.0536 10.9232 9.75684 10.7782C9.35116 10.58 9.35653 10.5821 9.40571 10.6433ZM8.3709 11.1033C8.21687 11.2382 8.16802 11.2496 8.11956 11.1619C8.08885 11.1065 8.07486 11.1115 7.97351 11.2153L7.86142 11.3301L7.97174 11.3074C8.04201 11.2929 8.10132 11.3012 8.13521 11.3303C8.18073 11.3693 8.21354 11.3499 8.36295 11.1956C8.56501 10.987 8.57 10.929 8.3709 11.1033ZM9.54269 11.1842C9.54269 11.2415 9.81397 11.4688 9.88245 11.4688C10.004 11.4688 9.96243 11.4152 9.70471 11.2395C9.56667 11.1455 9.54269 11.1372 9.54269 11.1842Z" fill="#37615D"/>
</svg>
